Obsidian-SemiLight/actions/24s/debug-execute-from-cursor.svg

<svg viewBox="0 0 24 24" xmlns="http://www.w3.org/2000/svg"><path d="m4 4v1h2v14h-2v1h5v-1h-2v-14h2v-1zm7 4v3 2 3h1v-3h4v2l4-3-4-3v2h-4v-3z" fill="#4d4d4d"/></svg>

<svg xmlns="http://www.w3.org/2000/svg" viewBox="0 0 24 24">
  <defs id="defs3051">
    <style type="text/css" id="current-color-scheme">
      .ColorScheme-Text {
        color:#4d4d4d;
      }
      </style>
  </defs>
 <path style="fill:currentColor;fill-opacity:1;stroke:none" 
     d="M 4 4 L 4 5 L 6 5 L 6 19 L 4 19 L 4 20 L 9 20 L 9 19 L 7 19 L 7 5 L 9 5 L 9 4 L 4 4 z M 11 8 L 11 11 L 11 13 L 11 16 L 12 16 L 12 13 L 16 13 L 16 15 L 20 12 L 16 9 L 16 11 L 12 11 L 12 8 L 11 8 z "
     class="ColorScheme-Text"
     />
</svg>
